projects/svn/images/icons/a_decor.svg

<svg width="359" height="398" viewBox="0 0 359 398" fill="none" xmlns="http://www.w3.org/2000/svg">
<path d="M282.128 390L280.249 390.684L280.728 392H282.128V390ZM323.925 390V392H326.774L325.806 389.32L323.925 390ZM184.786 5.02975L186.667 4.34994L186.189 3.02975H184.786V5.02975ZM149.588 5.02975V3.02975H148.183L147.707 4.35231L149.588 5.02975ZM10.9992 390L9.11738 389.323L8.1535 392H10.9992V390ZM52.246 390V392H53.653L54.1284 390.676L52.246 390ZM90.743 282.758V280.758H89.336L88.8606 282.083L90.743 282.758ZM243.081 282.758L244.961 282.074L244.481 280.758H243.081V282.758ZM167.187 72.6745L169.068 71.9935L167.187 66.8014L165.307 71.9935L167.187 72.6745ZM229.332 244.261V246.261H232.184L231.213 243.58L229.332 244.261ZM105.042 244.261L103.161 243.58L102.19 246.261H105.042V244.261ZM282.128 392H323.925V388H282.128V392ZM325.806 389.32L186.667 4.34994L182.905 5.70957L322.044 390.68L325.806 389.32ZM184.786 3.02975H149.588V7.02975H184.786V3.02975ZM147.707 4.35231L9.11738 389.323L12.8809 390.677L151.47 5.70719L147.707 4.35231ZM10.9992 392H52.246V388H10.9992V392ZM54.1284 390.676L92.6254 283.434L88.8606 282.083L50.3636 389.324L54.1284 390.676ZM90.743 284.758H243.081V280.758H90.743V284.758ZM241.202 283.443L280.249 390.684L284.007 389.316L244.961 282.074L241.202 283.443ZM165.307 73.3556L227.452 244.942L231.213 243.58L169.068 71.9935L165.307 73.3556ZM229.332 242.261H105.042V246.261H229.332V242.261ZM106.922 244.942L169.068 73.3556L165.307 71.9935L103.161 243.58L106.922 244.942Z" fill="#E0E0E0"/>
</svg>

<svg width="359" height="398" fill="none" xmlns="http://www.w3.org/2000/svg"><path d="M282.128 390l-1.879.684.479 1.316h1.4v-2zm41.797 0v2h2.849l-.968-2.68-1.881.68zM184.786 5.03l1.881-.68-.478-1.32h-1.403v2zm-35.198 0v-2h-1.405l-.476 1.322 1.881.678zM10.999 390l-1.882-.677L8.153 392H11v-2zm41.247 0v2h1.407l.475-1.324-1.882-.676zm38.497-107.242v-2h-1.407l-.475 1.325 1.882.675zm152.338 0l1.88-.684-.48-1.316h-1.4v2zM167.187 72.675l1.881-.681-1.881-5.193-1.88 5.192 1.88.681zm62.145 171.586v2h2.852l-.971-2.681-1.881.681zm-124.29 0l-1.881-.681-.971 2.681h2.852v-2zM282.128 392h41.797v-4h-41.797v4zm43.678-2.68L186.667 4.35l-3.762 1.36 139.139 384.97 3.762-1.36zM184.786 3.03h-35.198v4h35.198v-4zm-37.079 1.322L9.117 389.323l3.764 1.354L151.47 5.707l-3.763-1.355zM10.999 392h41.247v-4H10.999v4zm43.13-1.324l38.496-107.242-3.764-1.351-38.497 107.241 3.764 1.352zm36.614-105.918h152.338v-4H90.743v4zm150.459-1.315l39.047 107.241 3.758-1.368-39.046-107.242-3.759 1.369zM165.307 73.356l62.145 171.586 3.761-1.362-62.145-171.587-3.761 1.363zm64.025 168.905h-124.29v4h124.29v-4zm-122.41 2.681l62.146-171.586-3.761-1.362-62.146 171.586 3.761 1.362z" fill="#E0E0E0"/></svg>
